X:191
T:Valerie Farr's Reel
R:Reel
M:C|
L:1/8
K:C
gf|"C"e2g2 g2fe|"F"g2a2 "D7"d3c|"G"B2g2 "G7"gfed|"C"cBcd e2 gf|\
"C"e2g2 g2fe|"F"f2a2 "D7"d3c|"G"B2g2 "G7"gfed|"C"c4-c2:||:dc\
"G"B2BC "G7"D2cB|"C"cdef g2fg|"F"a2g2 "Dm"f2e2|"C"E4 "G,"d2 gf|\
"C"e2g2 g2fe|"F"f2a2 "D7"d3c|"G"B2g2 "G7"gfed|"C"C4 C2:||

%  <A name="D1X192"></A>
